TO LJX
	PD
     REPEAT 5 [FD 20 RT 180 - 180 / 5]
END

TO QUAN :A
	REPEAT 10 [PU FD :A LJX PU BK :A RT 360 / 10]
END

TO GQ
	PD LJX PU FD 10 QUAN 20 WAIT 100 CS
	PD LJX PU FD 10 QUAN 30 WAIT 100 CS
	PD LJX PU FD 10 QUAN 40 WAIT 100 CS
	PD LJX PU FD 10 QUAN 50 WAIT 100 CS
	PD LJX PU FD 10 QUAN 60 WAIT 100 CS
	PD LJX PU FD 10 QUAN 70 WAIT 100 CS
	PD LJX PU FD 10 QUAN 80 WAIT 100 CS
	PD LJX PU FD 10 QUAN 90 WAIT 100 CS
	PD LJX PU FD 10 QUAN 100 WAIT 100 CS
GQ
END

